archdroid-icon-theme/Archdroid-Teal/apps/scalable/system-file-manager-debian-color.svg

<?xml version="1.0" encoding="UTF-8" standalone="no"?>
<svg
   xmlns:dc="http://purl.org/dc/elements/1.1/"
   xmlns:cc="http://creativecommons.org/ns#"
   xmlns:rdf="http://www.w3.org/1999/02/22-rdf-syntax-ns#"
   xmlns:svg="http://www.w3.org/2000/svg"
   xmlns="http://www.w3.org/2000/svg"
   xmlns:sodipodi="http://sodipodi.sourceforge.net/DTD/sodipodi-0.dtd"
   xmlns:inkscape="http://www.inkscape.org/namespaces/inkscape"
   fill="#009688"
   width="48"
   height="48"
   viewBox="0 0 48 48"
   id="svg2"
   version="1.1"
   inkscape:version="0.91 r13725"
   sodipodi:docname="system-file-manager-debian.svg">
  <metadata
     id="metadata10">
    <rdf:RDF>
      <cc:Work
         rdf:about="">
        <dc:format>image/svg+xml</dc:format>
        <dc:type
           rdf:resource="http://purl.org/dc/dcmitype/StillImage" />
      </cc:Work>
    </rdf:RDF>
  </metadata>
  <defs
     id="defs8" />
  <sodipodi:namedview
     pagecolor="#ffffff"
     bordercolor="#666666"
     borderopacity="1"
     objecttolerance="10"
     gridtolerance="10"
     guidetolerance="10"
     inkscape:pageopacity="0"
     inkscape:pageshadow="2"
     inkscape:window-width="1366"
     inkscape:window-height="713"
     id="namedview6"
     showgrid="false"
     inkscape:snap-bbox="true"
     inkscape:snap-bbox-edge-midpoints="false"
     inkscape:snap-bbox-midpoints="true"
     inkscape:snap-object-midpoints="true"
     inkscape:zoom="4.369579357969434"
     inkscape:cx="-3.132011641325491"
     inkscape:cy="-3.629127164086803"
     inkscape:window-x="0"
     inkscape:window-y="30"
     inkscape:window-maximized="1"
     inkscape:current-layer="svg2"
     inkscape:bbox-nodes="true" />
  <path
     style="fill:#a80030;fill-opacity:1"
     d="M 20 5 L 16 9 L 16 13 L 8 13 C 5.79 13 4.01953125 14.79 4.01953125 17 L 4 39 C 4 41.21 5.789999999999999 43 8 43 L 40 43 C 42.21 43 44 41.21 44 39 L 44 17 C 44 14.79 42.21 13 40 13 L 32 13 L 32 9 L 28 5 L 20 5 z M 20 9 L 28 9 L 28 13 L 20 13 L 20 9 z M 25.201171875 18 C 24.96346741043439 18.0540321242186 24.63616750102578 18.0175469337807 24.412109375 18.099609375 L 24.279296875 18.080078125 C 24.58320452248188 18.0407987992029 24.89136310814954 18.0260018072178 25.201171875 18 z M 23.84765625 18.142578125 C 23.68869484700888 18.2314637354892 23.53181576405666 18.30168954118797 23.3828125 18.40625 C 23.98649781866808 18.26223477144649 23.95900354187992 18.4634509582281 24.57421875 18.3828125 C 24.357901740007 18.4145708014734 24.09674940164841 18.50047417650622 24.138671875 18.533203125 C 24.82873402116336 18.6132370564364 24.93328504337092 18.32039400777058 25.572265625 18.533203125 L 25.533203125 18.34375 C 26.42058395005025 18.66425454570601 26.60584830319767 18.6095404647362 27.5703125 19.12109375 C 27.90925804373284 19.1375062382439 27.94334042975593 18.91289488227728 28.455078125 19.12109375 C 28.5450701953709 19.27913310308979 28.4343996072067 19.30765718501623 29.0625 19.681640625 C 29.1325757925019 19.6537947179795 28.93773868846469 19.47737995486566 28.783203125 19.3359375 C 30.04622707985645 20.01050920782083 31.41927996979134 21.45004221980056 31.837890625 22.990234375 C 31.44601941693023 22.26771607230947 31.79672866059569 23.3593482389423 31.662109375 23.302734375 C 31.83674562631393 23.77390187458507 31.9798425844713 24.26097026878907 32.068359375 24.763671875 C 31.95236549741134 24.35077792917965 31.69918096756417 23.35519058627391 31.255859375 22.712890625 C 31.2197150188674 23.12744426064276 30.68408827129476 22.42561445261356 30.9765625 23.337890625 C 31.19951416614419 23.66097691042979 31.02210412940051 23.01168482144503 31.296875 23.5859375 C 31.301116429546 23.85886427079683 31.406310401472 24.12864814806278 31.466796875 24.484375 C 31.3723789651027 24.4688845616575 31.25665374260061 24.09215193624717 31.1875 24.197265625 C 31.2828399597987 24.64464423713049 31.44025116639309 24.8778091186701 31.5 24.912109375 C 31.4693879432755 24.9869798269889 31.39011351442799 24.8422079075576 31.384765625 25.146484375 C 31.4212788010931 25.84705789003862 31.5810107280506 25.5506061685715 31.65625 25.583984375 C 31.579904268169 25.92864662812113 31.27150548129854 26.33467187845769 31.423828125 26.927734375 C 31.3801229596765 26.74811905421884 31.2934279380544 26.56864791178749 31.228515625 26.3984375 C 31.1683979714326 26.90482730581629 31.34125372997999 27.00347108566766 31.107421875 27.6171875 C 31.27597259696469 27.06395755919561 31.25838636801086 26.56421688573035 31.099609375 26.8046875 C 31.1698695774822 27.5910116558633 30.4778639230111 28.19423694319711 30.552734375 28.69140625 L 30.349609375 28.4140625 C 29.80430906334715 29.20462808540949 30.3374609353389 28.85025513408911 29.966796875 29.44921875 C 30.10289144043791 29.21391161517785 29.8950476339623 29.3524099214874 30.072265625 29.0859375 C 29.95461205758894 29.09276066927 29.54633628514164 29.58669181605796 29.173828125 29.876953125 C 27.7086908317697 31.05146028932773 25.96083056382198 31.20479185731969 24.267578125 30.572265625 C 24.2017437620443 30.6262977492186 24.56894548898611 30.91332042991729 24.83984375 31.052734375 C 25.48454104101741 31.29117647948673 26.2149942314253 31.3024571477308 26.7890625 31.28125 C 25.54798333279546 31.80017968447452 23.17937202206695 30.75291947651769 22.404296875 29.365234375 C 22.57967076623499 29.4034072409155 23.17931471810629 30.34181798129852 23.62890625 30.494140625 C 23.36317146843363 30.2811470977903 23.15729238461698 30.00929664016542 22.966796875 29.73046875 C 23.32584310658203 30.14317828584007 23.76335016602662 30.47980451389529 24.240234375 30.703125 C 24.2096223182755 30.58713112241134 24.37238660082847 30.56443201870147 24.146484375 30.412109375 C 22.71048385865205 29.3121038427006 21.86174726151179 28.37731056340706 22.15625 26.212890625 C 22.37514464657826 26.04765928267976 22.4332140887496 25.14438811615985 22.935546875 24.828125 C 23.24166744224508 24.1517091923765 24.16011713491435 23.5291623133425 25.140625 23.513671875 C 26.14160237289544 23.4585332908998 26.98582888540303 24.04844158439291 27.41015625 24.603515625 C 26.63766284265679 23.88357906203319 25.37335143960805 23.66339873212374 24.294921875 24.197265625 C 23.19215019299656 24.6936972918818 22.53747254020139 25.90801125938185 22.6328125 27.1171875 C 22.6737515156195 27.0568854364523 22.7107368821113 27.0945001740369 22.73046875 26.9453125 C 22.6967217236109 29.29543328853707 25.26158699771333 31.0175617370037 27.109375 30.1484375 L 27.1328125 30.197265625 C 27.88188583984914 29.9929393668629 27.78364459240784 29.82464505400907 28.2734375 29.48828125 C 28.2352646340845 29.5672087215548 27.94524201360715 29.767611765414 28.119140625 29.771484375 C 28.35758272948669 29.708231751768 29.10092747414803 29.01670545519299 29.466796875 28.69140625 C 29.63460995704402 28.32940945873366 29.37694304007919 28.49418633130176 29.611328125 28.0390625 L 29.8984375 27.896484375 C 30.05736654793095 27.43682399998766 30.23401536278512 27.17699399631675 30.21484375 26.642578125 L 30.046875 26.994140625 C 30.29287791367766 26.24930871469701 30.1508777987096 25.43940799497944 30.185546875 24.73828125 L 30.1171875 24.71875 C 30.0570698464326 22.9548685387353 28.53285429479318 21.07949842214211 27.17578125 20.4453125 C 26.0062531551395 19.90499125781438 24.20492029598954 19.81371029854824 23.373046875 20.220703125 C 23.48756547274652 20.11927763585253 23.94402606029976 20.0762367066337 23.806640625 19.998046875 C 22.50415293436618 20.12750268114822 22.79527063317166 20.45199224728917 21.796875 20.70703125 C 21.52302617930183 20.97147516170451 22.59710330819979 20.49507247168154 22.01953125 20.837890625 C 21.48400466730134 20.98560301919476 21.23296927009377 20.745228607866 20.439453125 21.56640625 C 20.5100821474427 21.68074043776665 20.94329040134526 21.22780766356013 20.58203125 21.681640625 C 19.83627728979566 21.5890668149054 18.22666172841712 23.38799312381285 17.884765625 23.984375 L 18.064453125 24.015625 C 17.77087243641315 24.75105200130932 17.38458809437639 25.21960080713944 17.33203125 25.66015625 C 17.2562387481098 26.7428272441542 16.8769597162161 28.71872539999678 17.40234375 29.326171875 L 17.3515625 29.833984375 C 17.4236668022848 29.97782415960914 17.4787361245897 30.12477751944371 17.568359375 30.259765625 L 17.451171875 30.267578125 C 18.0038485858636 32.01080566847461 18.043727208079 30.3007909387275 18.7734375 32.111328125 C 18.66758617132609 32.0757369988082 18.56236986850413 32.0363238677227 18.408203125 31.828125 C 18.3897621269732 31.98690199301086 18.63095143591982 32.46342933985837 18.919921875 32.8359375 L 18.798828125 32.974609375 C 18.9596336277938 33.26671478374472 19.10718196193779 33.33161503091173 19.21875 33.43359375 C 18.61831110424697 33.10589721506355 19.77629891618796 34.51392846419912 19.880859375 34.693359375 L 19.97265625 34.529296875 C 19.9593787314207 34.76552605972349 20.14137243670128 35.07091972028465 20.484375 35.494140625 L 20.771484375 35.482421875 C 20.88913794241104 35.71496286011812 21.31913800292059 36.1345650071113 21.580078125 36.154296875 L 21.40625 36.380859375 C 22.0612742499124 36.58832060280165 21.72416290114932 36.65649283048573 22.529296875 36.94140625 L 22.3671875 36.654296875 C 22.77805293603741 37.01057695687804 22.90477443201726 37.32277635420315 23.484375 37.595703125 C 24.28803369400852 37.8758218850273 24.39388415826064 37.76413963523705 25.21875 38 C 24.51965176480351 37.9797149021705 23.6972079608636 37.9867499988474 23.14453125 37.7890625 C 19.37390038345751 36.76743120931454 15.92546152199319 32.34472665254394 16.177734375 27.7890625 C 16.1196452312152 26.86664377869882 16.2688478885634 25.71396542543383 16.115234375 25.484375 C 16.33080964193342 24.78251061509949 16.58165158874958 23.9266994460209 17.083984375 22.908203125 C 17.0476556088872 22.8399714323008 17.1664671773286 23.10708255343279 17.421875 22.671875 C 17.57677938342521 22.33163858640529 17.70314733089605 21.95760021962076 17.8984375 21.626953125 L 17.998046875 21.603515625 C 18.09855031424611 21.02004244743163 19.35910069015437 20.12434170679504 19.734375 19.673828125 L 19.76171875 19.84765625 C 20.58068347237078 19.0797730921635 22.03959725292521 18.56387266577305 22.861328125 18.197265625 C 22.64556844808628 18.43607654944724 23.34384818390746 18.1731901817245 23.84765625 18.142578125 z M 24.345703125 18.2578125 C 24.93636829179882 18.2745938082044 24.89266481930126 18.3130544545383 24.69921875 18.35546875 L 24.69140625 18.37109375 L 24.576171875 18.3828125 L 24.69921875 18.35546875 C 24.7279867069218 18.3132388645186 24.52255229607715 18.2895310166061 24.345703125 18.2578125 z M 16.544921875 22.28125 C 16.541602495355 22.47930631880797 16.87829582415125 22.08666552322873 16.63671875 22.630859375 C 16.18602075822465 22.94601603127824 16.5965566694751 22.75924066885499 16.544921875 22.28125 z M 16.177734375 23.80078125 C 16.1380862292424 23.98519123026814 16.11944781889099 24.17548017909668 16.015625 24.494140625 C 16.045868236764 24.24463392169722 15.89079244570277 24.16757270075332 16.177734375 23.80078125 z M 27.98828125 26.015625 C 28.0292663681146 26.014587693861 28.0571178578591 26.11568715192617 28.037109375 26.4140625 C 27.9773605413931 26.65434870428937 27.9289648433898 26.2664623365667 27.8671875 26.234375 C 27.8936503321685 26.12050183718442 27.94729613188541 26.01666230613901 27.98828125 26.015625 z M 31.611328125 27.021484375 C 31.5228113344713 27.70158838222887 31.3127337900746 28.37261171066765 30.986328125 28.986328125 C 31.28175291338956 28.40469904723432 31.4732455695502 27.77657963716184 31.5625 27.142578125 L 31.611328125 27.021484375 z M 27.7734375 27.244140625 C 27.7227247554262 27.55247411200832 27.5781780538869 27.85067333414397 27.380859375 28.123046875 C 27.4050170824151 27.88884620005947 26.83000490127151 28.22504652029893 27.49609375 27.38671875 C 27.4381890161958 27.62294793472348 26.87861375127934 28.2435427332671 27.498046875 27.853515625 C 27.61035255298329 27.6532463864288 27.72917910473561 27.46395732147962 27.7734375 27.244140625 z M 26.421875 28.525390625 C 26.3252441703395 28.6172267951735 26.21715391721375 28.7113760499843 26.09765625 28.8046875 C 25.66503043629098 28.7381154971232 25.27213089045817 28.571016499507 25.603515625 28.56640625 C 25.87976177544166 28.5916704172967 26.15245201882827 28.591409397936 26.421875 28.525390625 z M 22.240234375 28.56640625 C 22.316580106831 28.71928212364229 22.38474376233242 28.87257270363472 22.5 29 L 22.6015625 29.30078125 C 22.46233296489755 29.06602734511866 22.3132607271862 28.83509159125067 22.240234375 28.56640625 z M 21.986328125 29.021484375 C 22.25980812573764 29.54945014850766 22.40733704640907 29.71098216179209 22.607421875 30.1015625 C 22.32933162475564 29.87031238474376 22.15724131169666 29.5496998583501 21.939453125 29.25390625 L 21.986328125 29.021484375 z "
     id="path4185" />
</svg>

<svg xmlns="http://www.w3.org/2000/svg" fill="#009688" viewBox="0 0 48 48"><path d="m20 5l-4 4v4h-8c-2.21 0-3.98 1.79-3.98 4l-.02 22c0 2.21 1.79 4 4 4h32c2.21 0 4-1.79 4-4v-22c0-2.21-1.79-4-4-4h-8v-4l-4-4h-8m0 4h8v4h-8v-4m5.201 9c-.238.054-.565.018-.789.1l-.133-.02c.304-.039.612-.054.922-.08m-1.354.143c-.159.089-.316.159-.465.264.604-.144.576.057 1.191-.023-.216.032-.477.118-.436.15.69.08.795-.213 1.434 0l-.039-.189c.887.321 1.073.266 2.037.777.339.016.373-.208.885 0 .09.158-.021.187.607.561.07-.028-.125-.204-.279-.346 1.263.675 2.636 2.114 3.055 3.654-.392-.723-.041.369-.176.313.175.471.318.958.406 1.461-.116-.413-.369-1.408-.813-2.051-.036.415-.572-.287-.279.625.223.323.046-.326.32.248.004.273.109.543.17.898-.094-.015-.21-.392-.279-.287.095.447.253.681.313.715-.031.075-.11-.07-.115.234.037.701.196.404.271.438-.076.345-.385.751-.232 1.344-.044-.18-.13-.359-.195-.529-.06.506.113.605-.121 1.219.169-.553.151-1.053-.008-.813.07.786-.622 1.39-.547 1.887l-.203-.277c-.545.791-.012.436-.383 1.035.136-.235-.072-.097.105-.363-.118.007-.526.501-.898.791-1.465 1.175-3.213 1.328-4.906.695-.066.054.301.341.572.48.645.238 1.375.25 1.949.229-1.241.519-3.61-.528-4.385-1.916.175.038.775.977 1.225 1.129-.266-.213-.472-.485-.662-.764.359.413.797.749 1.273.973-.031-.116.132-.139-.094-.291-1.436-1.1-2.285-2.035-1.99-4.199.219-.165.277-1.069.779-1.385.306-.676 1.225-1.299 2.205-1.314 1-.055 1.845.535 2.27 1.09-.772-.72-2.037-.94-3.115-.406-1.103.496-1.757 1.711-1.662 2.92.041-.06.078-.023.098-.172-.034 2.35 2.531 4.072 4.379 3.203l.023.049c.749-.204.651-.373 1.141-.709-.038.079-.328.279-.154.283.238-.063.982-.755 1.348-1.08.168-.362-.09-.197.145-.652l.287-.143c.159-.46.336-.719.316-1.254l-.168.352c.246-.745.104-1.555.139-2.256l-.068-.02c-.06-1.764-1.584-3.639-2.941-4.273-1.17-.54-2.971-.632-3.803-.225.115-.101.571-.144.434-.223-1.302.129-1.01.454-2.01.709-.274.264.8-.212.223.131-.536.148-.787-.093-1.58.729.071.114.504-.339.143.115-.746-.093-2.355 1.706-2.697 2.303l.18.031c-.294.735-.68 1.204-.732 1.645-.076 1.083-.455 3.059.07 3.666l-.051.508c.072.144.127.291.217.426l-.117.008c.553 1.743.593.033 1.322 1.844-.106-.036-.211-.075-.365-.283-.018.159.223.635.512 1.01l-.121.139c.161.292.308.357.42.459-.6-.328.558 1.08.662 1.26l.092-.164c-.013.236.169.542.512.965l.287-.012c.118.233.548.652.809.672l-.174.227c.655.207.318.276 1.123.561l-.162-.287c.411.356.538.668 1.117.941.804.28.91.168 1.734.404-.699-.02-1.522-.013-2.074-.211-3.771-1.022-7.219-5.444-6.967-10-.058-.922.091-2.075-.063-2.305.216-.702.466-1.558.969-2.576-.036-.068.082.199.338-.236.155-.34.281-.714.477-1.045l.1-.023c.101-.583 1.361-1.479 1.736-1.93l.027.174c.819-.768 2.278-1.284 3.1-1.65-.216.239.483-.024.986-.055m.498.115c.591.017.547.055.354.098l-.008.016-.115.012.123-.027c.029-.042-.177-.066-.354-.098m-7.801 4.02c-.003.198.333-.195.092.35-.451.315-.04.128-.092-.35m-.367 1.52c-.04.184-.058.375-.162.693.03-.25-.125-.327.162-.693m11.811 2.215c.041-.001.069.1.049.398-.06.24-.108-.148-.17-.18.026-.114.08-.218.121-.219m3.623 1.01c-.089.68-.299 1.351-.625 1.965.295-.582.487-1.21.576-1.844l.049-.121m-3.838.223c-.051.308-.195.607-.393.879.024-.234-.551.102.115-.736-.058.236-.617.857.002.467.112-.2.231-.39.275-.609m-1.352 1.281c-.097.092-.205.186-.324.279-.433-.067-.826-.234-.494-.238.276.025.549.025.818-.041m-4.182.041c.076.153.145.306.26.434l.102.301c-.139-.235-.288-.466-.361-.734m-.254.455c.273.528.421.689.621 1.08-.278-.231-.45-.552-.668-.848l.047-.232" fill="#a80030"/></svg>
